X: 850
T: Polska efter Petter Dufva 
S: efter Petter Dufva
R: Slängpolska
B: [[http://www.smus.se/earkiv/fmk/browselarge.php?lang=sw&katalogid=Ma+6&bildnr=00040|SMUS - katalog Ma6 bild 40]] (litet annorlunda än denna version som baserar sig på vad jag hört spelas)
O: Småland
Z: Nils L, 2008-12-25
M: 3/4
L: 1/8
K: D
|: dc df A2 | GF EG FD | dc df A2 |1 GF/E/ F2 D2 :|2 G/F/E F2 D2 |]
|: fd df df | ge eg eg | fd df df | ge eg eg |
f>a gf ed | ed/c/ d2 D2 :|
(:musicend:)

%green% Tycker att det ser bra ut. Möjligen kan andra reprisen avslutas med två fjärdedelar i oktavsprång d2 D2 istället för halvnoten vilket också är det som står i originalnoterna. Så som andrareprisen är skriven i originalet har jag aldrig hört någon spela. /Jon
%blue% Tack för kommentaren. Har ändrat så att det blir ett oktavsprång nu, så som du föreslog. /Nils
(:music:)
